X: 42105
T: Wappinschaw, The
R: reel
M: 4/4
K: Dminor
DEFD F2 FA|GFED CDEC|D/D/D FD F2 Fc|dBcE D/D/D D2:|
d/d/d dAde f2|gfed cdec|d/d/d dA defg|fece d/d/d d2|
d/d/d dAde f2|gfed cdec|dedA defg|afge d2 d2||

